icon/pk/two.svg

<svg viewBox="0 0 48 48" fill="none" xmlns="http://www.w3.org/2000/svg" height="1em" width="1em">
  <path d="M11 40L6.8931 31.1017C5.81795 28.7722 6.68043 26.007 8.88925 24.7018L14.4301 21.4277C15.3946 20.8577 16.5963 20.8727 17.5463 21.4664L18.2334 21.8959C18.9449 22.3405 19.8546 21.7643 19.7566 20.9311L18.1481 7.25893C18.0546 6.46386 18.3303 5.66974 18.8963 5.10367C19.5247 4.47535 20.5249 4.41995 21.2188 4.97504L21.5966 5.27727C22.178 5.74239 22.5657 6.40711 22.6842 7.14218L24.9229 21.0222C24.9673 21.2976 25.2051 21.5 25.484 21.5C25.7767 21.5 26.0215 21.2777 26.0497 20.9864L27.3779 7.26175C27.456 6.45511 27.857 5.71437 28.4899 5.20811L28.6963 5.04293C29.4385 4.44919 30.5084 4.50844 31.1805 5.18051C31.7052 5.70522 32 6.41688 32 7.15893V29.4194C32 30.2579 32.9695 30.7244 33.6243 30.2006L37 27.5C38.6529 26.1777 40.8749 27.041 42.255 27.945C42.6936 28.2323 42.7587 28.8265 42.447 29.2482L34.5 40C34.5 40 31 44 23 44C15 44 11.6667 41.3333 11 40Z" fill="#2F88FF" stroke="black" stroke-width="4" stroke-linecap="round" stroke-linejoin="round"/>
</svg>

<svg width="48" height="48" fill="none" xmlns="http://www.w3.org/2000/svg"><path d="m11 40-4.107-8.898a5 5 0 0 1 1.996-6.4l5.541-3.274a3 3 0 0 1 3.116.038l.687.43a1 1 0 0 0 1.524-.965L18.148 7.26a2.616 2.616 0 0 1 .748-2.155 1.744 1.744 0 0 1 2.323-.129l.378.302a3 3 0 0 1 1.087 1.865l2.239 13.88a.568.568 0 0 0 1.127-.036l1.328-13.724a3 3 0 0 1 1.112-2.054l.206-.165a1.865 1.865 0 0 1 2.484.138c.525.524.82 1.236.82 1.978v22.26a1 1 0 0 0 1.624.782L37 27.5c1.653-1.322 3.875-.459 5.255.445.439.287.504.881.192 1.303L34.5 40S31 44 23 44s-11.333-2.667-12-4Z" fill="#2F88FF" stroke="#000" stroke-width="4" stroke-linecap="round" stroke-linejoin="round"/></svg>
